examples/next/public/listing-logo.svg

<svg width="147" height="40" viewBox="0 0 147 40" fill="none" xmlns="http://www.w3.org/2000/svg">
<path d="M17 23H9.89L13.46 28L9.89 33H17L20.55 28L17 23Z" fill="#BCECF5"/>
<path d="M18.63 21.84C18.27 21.33 17.67 21 17 21H6L11 28L6 34.99H17C17.67 34.99 18.27 34.67 18.63 34.16L23 28L18.63 21.84ZM17 33H9.89L13.46 28L9.89 23H17L20.55 28L17 33Z" fill="#40AABF"/>
<path d="M36 15H28.89L32.46 20L28.89 25H36L39.55 20L36 15Z" fill="#FEE6FE"/>
<path d="M37.63 13.84C37.27 13.33 36.67 13 36 13H25L30 20L25 26.99H36C36.67 26.99 37.27 26.67 37.63 26.16L42 20L37.63 13.84ZM36 25H28.89L32.46 20L28.89 15H36L39.55 20L36 25Z" fill="#BF40BF"/>
<path d="M17 7H9.89L13.46 12L9.89 17H17L20.55 12L17 7Z" fill="#BCECF5"/>
<path d="M18.63 5.84C18.27 5.33 17.67 5 17 5H6L11 12L6 18.99H17C17.67 18.99 18.27 18.67 18.63 18.16L23 12L18.63 5.84ZM17 17H9.89L13.46 12L9.89 7H17L20.55 12L17 17Z" fill="#40AABF"/>
<path d="M51.728 27C51.568 27 51.488 26.92 51.488 26.76V10.44C51.488 10.28 51.568 10.2 51.728 10.2H53.552C53.712 10.2 53.792 10.28 53.792 10.44V24.912C53.792 24.976 53.824 25.008 53.888 25.008H59.264C59.424 25.008 59.504 25.088 59.504 25.248V26.76C59.504 26.92 59.424 27 59.264 27H51.728Z" fill="#40AABF"/>
<path d="M60.7814 31.8C60.7494 31.8 60.7174 31.776 60.6854 31.728C60.6534 31.68 60.6374 31.624 60.6374 31.56V30.096C60.6374 29.936 60.6774 29.856 60.7574 29.856H60.8774C61.3894 29.856 61.7894 29.776 62.0774 29.616C62.3814 29.472 62.6214 29.2 62.7974 28.8C62.9894 28.416 63.1494 27.84 63.2774 27.072L63.2534 26.952L60.1814 15.048L60.1574 14.976C60.1574 14.848 60.2374 14.784 60.3974 14.784H62.3654C62.5254 14.784 62.6134 14.856 62.6294 15L64.3814 23.664C64.3974 23.712 64.4134 23.736 64.4294 23.736C64.4454 23.736 64.4614 23.712 64.4774 23.664L66.2054 15C66.2374 14.856 66.3254 14.784 66.4694 14.784L68.4614 14.808C68.5414 14.808 68.5974 14.832 68.6294 14.88C68.6774 14.928 68.6854 14.992 68.6534 15.072L65.3654 27.84C65.0614 28.944 64.7574 29.768 64.4534 30.312C64.1494 30.856 63.7254 31.24 63.1814 31.464C62.6534 31.688 61.8934 31.8 60.9014 31.8H60.7814Z" fill="#40AABF"/>
<path d="M73.5483 27.144C72.3483 27.144 71.3963 26.856 70.6923 26.28C70.0043 25.688 69.6603 24.896 69.6603 23.904V23.688C69.6603 23.528 69.7403 23.448 69.9003 23.448H71.6043C71.7643 23.448 71.8443 23.512 71.8443 23.64V23.856C71.8443 24.288 72.0123 24.656 72.3483 24.96C72.6843 25.248 73.1003 25.392 73.5963 25.392C74.0763 25.392 74.4603 25.248 74.7483 24.96C75.0523 24.672 75.2043 24.304 75.2043 23.856C75.2043 23.504 75.1003 23.208 74.8923 22.968C74.6843 22.728 74.4363 22.544 74.1483 22.416C73.8763 22.272 73.4523 22.08 72.8763 21.84C72.2523 21.568 71.7323 21.304 71.3163 21.048C70.9163 20.792 70.5563 20.424 70.2363 19.944C69.9163 19.464 69.7563 18.856 69.7563 18.12C69.7563 17.032 70.0923 16.184 70.7643 15.576C71.4523 14.968 72.3723 14.664 73.5243 14.664C74.7083 14.664 75.6363 14.976 76.3083 15.6C76.9963 16.224 77.3403 17.072 77.3403 18.144V18.216C77.3403 18.376 77.2603 18.456 77.1003 18.456H75.4443C75.3803 18.456 75.3243 18.44 75.2763 18.408C75.2283 18.36 75.2043 18.304 75.2043 18.24V18.048C75.2043 17.616 75.0523 17.248 74.7483 16.944C74.4443 16.64 74.0523 16.488 73.5723 16.488C73.0763 16.488 72.6843 16.64 72.3963 16.944C72.1083 17.248 71.9643 17.616 71.9643 18.048C71.9643 18.384 72.0603 18.664 72.2523 18.888C72.4443 19.112 72.6763 19.296 72.9483 19.44C73.2203 19.568 73.6523 19.76 74.2443 20.016C74.9003 20.304 75.4443 20.584 75.8763 20.856C76.3083 21.112 76.6843 21.48 77.0043 21.96C77.3403 22.44 77.5083 23.04 77.5083 23.76C77.5083 24.8 77.1483 25.624 76.4283 26.232C75.7243 26.84 74.7643 27.144 73.5483 27.144Z" fill="#40AABF"/>
<path d="M84.1256 16.224C84.1256 16.384 84.0456 16.464 83.8856 16.464H82.2056C82.1416 16.464 82.1096 16.496 82.1096 16.56V23.304C82.1096 23.944 82.2216 24.392 82.4456 24.648C82.6696 24.888 83.0216 25 83.5016 24.984H83.7176C83.8776 24.984 83.9576 25.064 83.9576 25.224V26.76C83.9576 26.92 83.8776 27 83.7176 27H82.9736C81.9496 27 81.1736 26.8 80.6456 26.4C80.1336 26 79.8776 25.24 79.8776 24.12V16.56C79.8776 16.496 79.8456 16.464 79.7816 16.464H78.8456C78.6856 16.464 78.6056 16.384 78.6056 16.224V15.024C78.6056 14.864 78.6856 14.784 78.8456 14.784H79.7816C79.8456 14.784 79.8776 14.752 79.8776 14.688V11.976C79.8776 11.816 79.9576 11.736 80.1176 11.736H81.8696C82.0296 11.736 82.1096 11.816 82.1096 11.976V14.688C82.1096 14.752 82.1416 14.784 82.2056 14.784H83.8856C84.0456 14.784 84.1256 14.864 84.1256 15.024V16.224Z" fill="#40AABF"/>
<path d="M87.2549 12.984C86.8229 12.984 86.4709 12.84 86.1989 12.552C85.9269 12.264 85.7909 11.896 85.7909 11.448C85.7909 11 85.9269 10.64 86.1989 10.368C86.4709 10.08 86.8229 9.936 87.2549 9.936C87.6869 9.936 88.0309 10.08 88.2869 10.368C88.5589 10.64 88.6949 11 88.6949 11.448C88.6949 11.912 88.5589 12.288 88.2869 12.576C88.0309 12.848 87.6869 12.984 87.2549 12.984ZM86.3429 27C86.1829 27 86.1029 26.92 86.1029 26.76V15.024C86.1029 14.864 86.1829 14.784 86.3429 14.784H88.1669C88.3269 14.784 88.4069 14.864 88.4069 15.024V26.76C88.4069 26.92 88.3269 27 88.1669 27H86.3429Z" fill="#40AABF"/>
<path d="M93.8774 14.688C93.8774 14.752 93.9094 14.784 93.9734 14.784H95.6534C95.8134 14.784 95.8934 14.864 95.8934 15.024V16.224C95.8934 16.384 95.8134 16.464 95.6534 16.464H93.9734C93.9094 16.464 93.8774 16.496 93.8774 16.56V26.76C93.8774 26.92 93.7974 27 93.6374 27H91.8374C91.6774 27 91.5974 26.92 91.5974 26.76V16.56C91.5974 16.496 91.5654 16.464 91.5014 16.464H90.6134C90.4534 16.464 90.3734 16.384 90.3734 16.224V15.024C90.3734 14.864 90.4534 14.784 90.6134 14.784H91.5014C91.5654 14.784 91.5974 14.752 91.5974 14.688V14.064C91.5974 12.64 91.8934 11.624 92.4854 11.016C93.0774 10.392 94.0374 10.08 95.3654 10.08H95.6774C95.8374 10.08 95.9174 10.16 95.9174 10.32L95.8694 11.784C95.8694 11.944 95.7894 12.024 95.6294 12.024H95.3894C94.8614 12.024 94.4774 12.2 94.2374 12.552C93.9974 12.888 93.8774 13.416 93.8774 14.136V14.688Z" fill="#40AABF"/>
<path d="M97.6017 31.8C97.5697 31.8 97.5377 31.776 97.5057 31.728C97.4737 31.68 97.4577 31.624 97.4577 31.56V30.096C97.4577 29.936 97.4978 29.856 97.5778 29.856H97.6978C98.2098 29.856 98.6098 29.776 98.8978 29.616C99.2018 29.472 99.4417 29.2 99.6177 28.8C99.8097 28.416 99.9698 27.84 100.098 27.072L100.074 26.952L97.0018 15.048L96.9777 14.976C96.9777 14.848 97.0578 14.784 97.2178 14.784H99.1857C99.3457 14.784 99.4337 14.856 99.4497 15L101.202 23.664C101.218 23.712 101.234 23.736 101.25 23.736C101.266 23.736 101.282 23.712 101.298 23.664L103.026 15C103.058 14.856 103.146 14.784 103.29 14.784L105.282 14.808C105.362 14.808 105.418 14.832 105.45 14.88C105.498 14.928 105.506 14.992 105.474 15.072L102.186 27.84C101.882 28.944 101.578 29.768 101.274 30.312C100.97 30.856 100.546 31.24 100.002 31.464C99.4738 31.688 98.7137 31.8 97.7217 31.8H97.6017Z" fill="#40AABF"/>
<path d="M108.419 12.984C107.987 12.984 107.635 12.84 107.363 12.552C107.091 12.264 106.955 11.896 106.955 11.448C106.955 11 107.091 10.64 107.363 10.368C107.635 10.08 107.987 9.936 108.419 9.936C108.851 9.936 109.195 10.08 109.451 10.368C109.723 10.64 109.859 11 109.859 11.448C109.859 11.912 109.723 12.288 109.451 12.576C109.195 12.848 108.851 12.984 108.419 12.984ZM107.507 27C107.347 27 107.267 26.92 107.267 26.76V15.024C107.267 14.864 107.347 14.784 107.507 14.784H109.331C109.491 14.784 109.571 14.864 109.571 15.024V26.76C109.571 26.92 109.491 27 109.331 27H107.507Z" fill="#40AABF"/>
<path d="M117.058 14.616C118.066 14.616 118.834 14.96 119.362 15.648C119.906 16.32 120.177 17.28 120.177 18.528V26.76C120.177 26.92 120.097 27 119.938 27H118.114C117.954 27 117.873 26.92 117.873 26.76V18.72C117.873 18.048 117.729 17.528 117.441 17.16C117.153 16.792 116.754 16.608 116.242 16.608C115.682 16.608 115.25 16.808 114.946 17.208C114.642 17.592 114.49 18.128 114.49 18.816V26.76C114.49 26.92 114.409 27 114.249 27H112.425C112.265 27 112.186 26.92 112.186 26.76V15.024C112.186 14.864 112.265 14.784 112.425 14.784H114.249C114.409 14.784 114.49 14.864 114.49 15.024V15.648C114.49 15.68 114.505 15.704 114.537 15.72C114.569 15.72 114.601 15.704 114.633 15.672C115.209 14.968 116.018 14.616 117.058 14.616Z" fill="#40AABF"/>
<path d="M128.065 15.024C128.065 14.864 128.145 14.784 128.305 14.784H130.129C130.289 14.784 130.369 14.864 130.369 15.024V26.64C130.369 28.32 129.985 29.616 129.217 30.528C128.449 31.456 127.129 31.92 125.257 31.92L124.609 31.896C124.449 31.88 124.369 31.792 124.369 31.632V30.096C124.369 29.936 124.457 29.856 124.633 29.856C125.945 29.904 126.841 29.64 127.321 29.064C127.817 28.504 128.065 27.624 128.065 26.424V25.92C128.065 25.888 128.049 25.872 128.017 25.872C128.001 25.856 127.977 25.864 127.945 25.896C127.401 26.632 126.625 27 125.617 27C124.561 27 123.745 26.664 123.169 25.992C122.609 25.304 122.329 24.376 122.329 23.208V18.408C122.329 17.224 122.617 16.296 123.193 15.624C123.769 14.936 124.577 14.592 125.617 14.592C126.657 14.592 127.433 14.96 127.945 15.696C127.977 15.728 128.001 15.736 128.017 15.72C128.049 15.704 128.065 15.68 128.065 15.648V15.024ZM126.361 25.008C126.873 25.008 127.281 24.832 127.585 24.48C127.905 24.112 128.065 23.64 128.065 23.064V18.552C128.065 17.976 127.905 17.504 127.585 17.136C127.281 16.768 126.873 16.584 126.361 16.584C125.849 16.584 125.433 16.768 125.113 17.136C124.793 17.504 124.633 17.976 124.633 18.552V23.064C124.633 23.64 124.793 24.112 125.113 24.48C125.433 24.832 125.849 25.008 126.361 25.008Z" fill="#40AABF"/>
</svg>

<svg fill="none" height="40" viewBox="0 0 147 40" width="147" xmlns="http://www.w3.org/2000/svg"><path d="m17 23h-7.11l3.57 5-3.57 5h7.11l3.55-5z" fill="#bcecf5"/><path d="m18.63 21.84c-.36-.51-.96-.84-1.63-.84h-11l5 7-5 6.99h11c.67 0 1.27-.32 1.63-.83l4.37-6.16zm-1.63 11.16h-7.11l3.57-5-3.57-5h7.11l3.55 5z" fill="#40aabf"/><path d="m36 15h-7.11l3.57 5-3.57 5h7.11l3.55-5z" fill="#fee6fe"/><path d="m37.63 13.84c-.36-.51-.96-.84-1.63-.84h-11l5 7-5 6.99h11c.67 0 1.27-.32 1.63-.83l4.37-6.16zm-1.63 11.16h-7.11l3.57-5-3.57-5h7.11l3.55 5z" fill="#bf40bf"/><path d="m17 7h-7.11l3.57 5-3.57 5h7.11l3.55-5z" fill="#bcecf5"/><g fill="#40aabf"><path d="m18.63 5.84c-.36-.51-.96-.84-1.63-.84h-11l5 7-5 6.99h11c.67 0 1.27-.32 1.63-.83l4.37-6.16zm-1.63 11.16h-7.11l3.57-5-3.57-5h7.11l3.55 5z"/><path d="m51.728 27c-.16 0-.24-.08-.24-.24v-16.32c0-.16.08-.24.24-.24h1.824c.16 0 .24.08.24.24v14.472c0 .064.032.096.096.096h5.376c.16 0 .24.08.24.24v1.512c0 .16-.08.24-.24.24z"/><path d="m60.7814 31.8c-.032 0-.064-.024-.096-.072s-.048-.104-.048-.168v-1.464c0-.16.04-.24.12-.24h.12c.512 0 .912-.08 1.2-.24.304-.144.544-.416.72-.816.192-.384.352-.96.48-1.728l-.024-.12-3.072-11.904-.024-.072c0-.128.08-.192.24-.192h1.968c.16 0 .248.072.264.216l1.752 8.664c.016.048.032.072.048.072s.032-.024.048-.072l1.728-8.664c.032-.144.12-.216.264-.216l1.992.024c.08 0 .136.024.168.072.048.048.056.112.024.192l-3.288 12.768c-.304 1.104-.608 1.928-.912 2.472s-.728.928-1.272 1.152c-.528.224-1.288.336-2.28.336z"/><path d="m73.5483 27.144c-1.2 0-2.152-.288-2.856-.864-.688-.592-1.032-1.384-1.032-2.376v-.216c0-.16.08-.24.24-.24h1.704c.16 0 .24.064.24.192v.216c0 .432.168.8.504 1.104.336.288.752.432 1.248.432.48 0 .864-.144 1.152-.432.304-.288.456-.656.456-1.104 0-.352-.104-.648-.312-.888s-.456-.424-.744-.552c-.272-.144-.696-.336-1.272-.576-.624-.272-1.144-.536-1.56-.792-.4-.256-.76-.624-1.08-1.104s-.48-1.088-.48-1.824c0-1.088.336-1.936 1.008-2.544.688-.608 1.608-.912 2.76-.912 1.184 0 2.112.312 2.784.936.688.624 1.032 1.472 1.032 2.544v.072c0 .16-.08.24-.24.24h-1.656c-.064 0-.12-.016-.168-.048-.048-.048-.072-.104-.072-.168v-.192c0-.432-.152-.8-.456-1.104s-.696-.456-1.176-.456c-.496 0-.888.152-1.176.456s-.432.672-.432 1.104c0 .336.096.616.288.84s.424.408.696.552c.272.128.704.32 1.296.576.656.288 1.2.568 1.632.84.432.256.808.624 1.128 1.104.336.48.504 1.08.504 1.8 0 1.04-.36 1.864-1.08 2.472-.704.608-1.664.912-2.88.912z"/><path d="m84.1256 16.224c0 .16-.08.24-.24.24h-1.68c-.064 0-.096.032-.096.096v6.744c0 .64.112 1.088.336 1.344.224.24.576.352 1.056.336h.216c.16 0 .24.08.24.24v1.536c0 .16-.08.24-.24.24h-.744c-1.024 0-1.8-.2-2.328-.6-.512-.4-.768-1.16-.768-2.28v-7.56c0-.064-.032-.096-.096-.096h-.936c-.16 0-.24-.08-.24-.24v-1.2c0-.16.08-.24.24-.24h.936c.064 0 .096-.032.096-.096v-2.712c0-.16.08-.24.24-.24h1.752c.16 0 .24.08.24.24v2.712c0 .064.032.096.096.096h1.68c.16 0 .24.08.24.24z"/><path d="m87.2549 12.984c-.432 0-.784-.144-1.056-.432s-.408-.656-.408-1.104.136-.808.408-1.08c.272-.288.624-.432 1.056-.432s.776.144 1.032.432c.272.272.408.632.408 1.08 0 .464-.136.84-.408 1.128-.256.272-.6.408-1.032.408zm-.912 14.016c-.16 0-.24-.08-.24-.24v-11.736c0-.16.08-.24.24-.24h1.824c.16 0 .24.08.24.24v11.736c0 .16-.08.24-.24.24z"/><path d="m93.8774 14.688c0 .064.032.096.096.096h1.68c.16 0 .24.08.24.24v1.2c0 .16-.08.24-.24.24h-1.68c-.064 0-.096.032-.096.096v10.2c0 .16-.08.24-.24.24h-1.8c-.16 0-.24-.08-.24-.24v-10.2c0-.064-.032-.096-.096-.096h-.888c-.16 0-.24-.08-.24-.24v-1.2c0-.16.08-.24.24-.24h.888c.064 0 .096-.032.096-.096v-.624c0-1.424.296-2.44.888-3.048.592-.624 1.552-.936 2.88-.936h.312c.16 0 .24.08.24.24l-.048 1.464c0 .16-.08.24-.24.24h-.24c-.528 0-.912.176-1.152.528-.24.336-.36.864-.36 1.584z"/><path d="m97.6017 31.8c-.032 0-.064-.024-.096-.072s-.048-.104-.048-.168v-1.464c0-.16.0401-.24.1201-.24h.12c.512 0 .912-.08 1.2-.24.304-.144.5439-.416.7199-.816.192-.384.3521-.96.4803-1.728l-.024-.12-3.0722-11.904-.0241-.072c0-.128.0801-.192.2401-.192h1.9679c.16 0 .248.072.264.216l1.7523 8.664c.016.048.032.072.048.072s.032-.024.048-.072l1.728-8.664c.032-.144.12-.216.264-.216l1.992.024c.08 0 .136.024.168.072.048.048.056.112.024.192l-3.288 12.768c-.304 1.104-.608 1.928-.912 2.472s-.728.928-1.272 1.152c-.5282.224-1.2883.336-2.2803.336z"/><path d="m108.419 12.984c-.432 0-.784-.144-1.056-.432s-.408-.656-.408-1.104.136-.808.408-1.08c.272-.288.624-.432 1.056-.432s.776.144 1.032.432c.272.272.408.632.408 1.08 0 .464-.136.84-.408 1.128-.256.272-.6.408-1.032.408zm-.912 14.016c-.16 0-.24-.08-.24-.24v-11.736c0-.16.08-.24.24-.24h1.824c.16 0 .24.08.24.24v11.736c0 .16-.08.24-.24.24z"/><path d="m117.058 14.616c1.008 0 1.776.344 2.304 1.032.544.672.815 1.632.815 2.88v8.232c0 .16-.08.24-.239.24h-1.824c-.16 0-.241-.08-.241-.24v-8.04c0-.672-.144-1.192-.432-1.56s-.687-.552-1.199-.552c-.56 0-.992.2-1.296.6-.304.384-.456.92-.456 1.608v7.944c0 .16-.081.24-.241.24h-1.824c-.16 0-.239-.08-.239-.24v-11.736c0-.16.079-.24.239-.24h1.824c.16 0 .241.08.241.24v.624c0 .032.015.056.047.072.032 0 .064-.016.096-.048.576-.704 1.385-1.056 2.425-1.056z"/><path d="m128.065 15.024c0-.16.08-.24.24-.24h1.824c.16 0 .24.08.24.24v11.616c0 1.68-.384 2.976-1.152 3.888-.768.928-2.088 1.392-3.96 1.392l-.648-.024c-.16-.016-.24-.104-.24-.264v-1.536c0-.16.088-.24.264-.24 1.312.048 2.208-.216 2.688-.792.496-.56.744-1.44.744-2.64v-.504c0-.032-.016-.048-.048-.048-.016-.016-.04-.008-.072.024-.544.736-1.32 1.104-2.328 1.104-1.056 0-1.872-.336-2.448-1.008-.56-.688-.84-1.616-.84-2.784v-4.8c0-1.184.288-2.112.864-2.784.576-.688 1.384-1.032 2.424-1.032s1.816.368 2.328 1.104c.032.032.056.04.072.024.032-.016.048-.04.048-.072zm-1.704 9.984c.512 0 .92-.176 1.224-.528.32-.368.48-.84.48-1.416v-4.512c0-.576-.16-1.048-.48-1.416-.304-.368-.712-.552-1.224-.552s-.928.184-1.248.552-.48.84-.48 1.416v4.512c0 .576.16 1.048.48 1.416.32.352.736.528 1.248.528z"/></g></svg>
